X:267
T: SINGE WEM GESANG GEGEBEN
N: B0316
O: Europa, Mitteleuropa, Deutschland
R: Geselligkeits - Lied, Freude
M: 3/4
L: 1/16
K: G
 | B3AG2A2B2c2 | d4B4
c2B2 | A2B2c4d4 | B8z4
B3AG2A2B2^c2 | e4d4
^c2B2 | A2d2e4^c4 | d8z4
c3Bc2B2A2G2 | B3AA4
A2A2 | d6B2c2B2 | c8z4
c3BA2B2c2^c2 | d4B4
c2A2 | G2B2d6F2 | G8z4

